!!!COM: Bach, Johann Sebastian
!!!CDT: 1685/3//-1750/7/28/
!!!OTL@@DE: O Traurigkeit
!!!AGN: 4-Part Chorale
!!!SCT: BH 57
!!!SCT: BWV 404
**harm	**root	**kern	**kern	**kern	**kern
!	!	!bass	!tenor	!alto	!soprno
*	*Iorgan	*Iorgan	*Iorgan	*Iorgan	*Iorgan
*	*	*clefF4	*clefF4	*clefG2	*clefG2
*k[b-e-a-]	*k[b-e-a-]	*k[b-e-a-]	*k[b-e-a-]	*k[b-e-a-]	*k[b-e-a-]
*c:	*c:	*c:	*c:	*c:	*c:
*M4/4	*M4/4	*M4/4	*M4/4	*M4/4	*M4/4
*met(c)	*met(c)	*met(c)	*met(c)	*met(c)	*met(c)
*MM60	*MM60	*MM60	*MM60	*MM60	*MM60
V	4EE	4G	4d	4b	4gg
=1	=1	=1	=1	=1	=1
i	4AA	4c	8c	4g	8ee-
.	.	.	8B	.	8dd
viio7c/V	4DD#	4C	4A	8g	4ee-
.	.	.	.	8f#	.
V	4EE	4G;	4B;	4g;	4dd;
Vd	4EE	4F	4d	4g	4b
=2	=2	=2	=2	=2	=2
ib	4AA	4E-	4e-	4g	4cc
iv	4DD	4A-	8d	4f	4cc
.	.	.	8c	.	.
V;	4EE;	4G;	4d;	4g;	4b;
V	4EE	4G	4d	4b	4gg
=3	=3	=3	=3	=3	=3
i	4AA	4c	4e-	4cc	4gg
Vb	4EE	4B	4d	4dd	4gg
VI	4FF	8c	8e-	4cc	4aa-
.	.	8d	8f	.	.
III	4CC	4e-	8g	4b-	8gg
.	.	.	8e-	.	8ff
=4	=4	=4	=4	=4	=4
V7b/-VII	4DD	4A	4e-	4cc	2ff
-VII	4GG	4B-	4d	8b-	.
.	.	.	.	8a-	.
III;	2CC;	2E-;	2e-;	2g;	2ee-;
!!linebreak: 2
=5	=5	=5	=5	=5	=5
-VII	4GG	4BB-	4f	4b-	4dd
VIb	4FF	4C	4e-	8a-	4ee-
.	.	.	.	8g	.
-VIIb	4GG	4D	4b-	8f	4ff
.	.	.	.	8ff	.
III	4CC	4E-	8B-	4ee-	4gg
.	.	.	8c	.	.
=6	=6	=6	=6	=6	=6
V7b	4EE	4B	8d	4dd	4ff
.	.	.	8G	.	.
i	4AA	4c	4g	4cc	4ee-
V;	2EE;	2G;	2g;	2b;	2dd;
=7	=7	=7	=7	=7	=7
#viD7	4FF#	4A	8g	4g	4cc
.	.	.	[8f	.	.
V7b	4EE	4B	8f]	4g	4dd
.	.	.	[8e-	.	.
ib	4AA	8c	8e-]	4g	4ee-
.	.	8B-	8d	.	.
ivb	4DD	8A-	4c	8cc	8ff
.	.	8G	.	8b-	8gg
=8	=8	=8	=8	=8	=8
iv	4DD	4F	4c	4a-	2dd
V7	4EE	4G	4B	8g	.
.	.	.	.	8f	.
i;	2AA;	2C;	2G;	2e-;	2cc;
==	==	==	==	==	==
*-	*-	*-	*-	*-	*-
!!chor2scor: -l 2 -s 0.6 -o %b.pmx
!!!YEC: Copyright 2003 by Craig Stuart Sapp
!!!license: GNU General Public License (http://www.gnu.org/copyleft/gpl.html)
!!!SMA: 371 Bach Chorales, edited by Ludwig Erk, C.F. Peters
!!!PDT: 1850, 1865
!!!ONB: Harmony and Root analysis done manually by Craig Sapp
